X:1
T:Chanson de Craonne
C:Compose par les poilus de la grande guerre, musique G. Sablon, fichier abc : Bernard Loffet
L:1/8
Q:410
K:G
M:3/4
 z4 D2 | [B2G,,2] [B2G,2] [B2G,2] | [B2G,,2] G,2 [D2G,2] | [A2D,,2] [A2D,2] [A2D,2] | \
 [A2D,,2] D,2 [D2D,2] | [G2G,,2] [G2G,2] [G2G,2] | [G2G,,2] G,2 [E2G,2] | [F2D,,2] D,2 D,2 | \
 D,,2 [G2G,2] [A2D,2] | [E2C,,2] C,2 C,2 | [F2G,,2] [G2C,2] [E2C,2] | [G2C,,2] C,2 C,2 | \
 [F2D,,2] [F2D,2] [c2G,2] | [c2C,,2] C,2 C,2 | [A2D,,2] [E2D,2] [F2D,2] | [E2G,,2] G,2 G,2 | \
 [D2G,,2] G,2 [D2G,2] | [B2G,,2] [B2G,2] [B2G,2] | [B2G,,2] G,2 [D2G,2] | [A2D,,2] [A2D,2] [A2D,2] | \
 [A2D,,2] D,2 [D2D,2] | [G2G,,2] [G2G,2] [G2G,2] | [G2G,,2] G,2 [E2G,2] | [A2D,,2] D,2 D,2 | \
 D,,2 D,2 [A2D,2] | [B2A,,2] [A2A,2] [B2A,2] | [A2A,,2] A,2 [F2A,2] | [G2G,,2] [F2D,2] [G2G,2] | \
 [F2D,,2] D,2 [A2D,2] | [B2A,,2] [A2A,2] [E2A,2] | [G2E,,2] A,2 [F2A,2] | [D2D,,2] D,2 D,2 | \
 D,,2 D,2 [D2D,2] | [D2C,,2] [D2C,2] [D2C,2] | [E2C,,2] C,2 [E2C,2] | [G2C,,2] [G2C,2] [G2C,2] | \
 [F2D,,2] D,2 [F2D,2] | [F2D,,2] [F2D,2] [F2D,2] | [G2G,,2] G,2 [G2G,2] | ^A2 A2 A2 | \
 [A2D,,2] D,2 D,2 | D,,2 D,2 D,2 | [G2G,,2] [G2G,2] [G2G,2] | [F2D,,2] D,2 D,2 | [A2D,,2] [A2D,2] [A2D,2] | \
 [G2G,,2] G,2 G,2 | [B2G,,2] [B2G,2] [B2G,2] | [c2G,,2] G,2 [B2G,2] | [E2C,,2] C,2 C,2 | \
 C,,2 C,2 C,2 | [A2A,,2] [A2A,2] [A2A,2] | [^G2E,,2] E,2 E,2 | [G2C,,2] [G2C,2] [G2C,2] | \
 [F2D,,2] D,2 D,2 | [F2A,,2] [F2A,2] [G2E,2] | [F2D,,2] D,2 [D2D,2] | [E2G,,2] G,2 [^D2G,2] | \
 [D2G,,2] G,2 G,2 | [G2G,,2] [G2G,2] [G2G,2] | [F2D,,2] D,2 D,2 | [A2D,,2] [A2D,2] [A2D,2] | \
 [G2G,,2] G,2 G,2 | [B2G,,2] [B2G,2] [B2G,2] | [c2G,,2] G,2 [B2G,2] | [E2C,,2] C,2 C,2 | \
 C,,2 C,2 [E2C,2] | [A2D,,2] [A2D,2] [B2D,2] | [c2D,,2] [B2D,2] [A2D,2] | [d2G,,2] G,2 G,2 | \
 [B2E,,2] [G2E,2] [D2E,2] | [E2C,,2] C,2 C,2 | [B2D,,2] D,2 D,2 | [G2G,,2] G,2 G,2 | \
 G,,6 | \
W:Created with TablEdit http://www.tabledit.com/ by Bernard Loffet
